X:1987
T:Fishermans Lilt
O:england
M:6/8
L:1/8
S:Matt Molloy ( Heathery Breeze )
K:D
|FAA FBd|BAG FAA|FBd B2A|FAA FBd|BAG FEF|DFA B2A:|
|fef faf|edB faa|afa baf|a3  aba|gfe dBA|EFG B2A:|


